src/assets/icons/4-icon-nodejs.svg

<svg width="57" height="64" viewBox="0 0 57 64" fill="none" xmlns="http://www.w3.org/2000/svg">
<g clip-path="url(#clip0_408_847)">
<path d="M28.7704 64C27.9124 64 27.1116 63.7668 26.3681 63.3586L18.7607 58.7517C17.6168 58.1102 18.1887 57.877 18.532 57.7603C20.0763 57.2355 20.3623 57.1189 21.9638 56.1859C22.1354 56.0692 22.3642 56.1275 22.5358 56.2442L28.37 59.8014C28.5988 59.918 28.8848 59.918 29.0564 59.8014L51.8783 46.3307C52.1071 46.214 52.2215 45.9808 52.2215 45.6892V18.806C52.2215 18.5145 52.1071 18.2812 51.8783 18.1646L29.0564 4.75223C28.8276 4.63561 28.5415 4.63561 28.37 4.75223L5.54803 18.1646C5.31924 18.2812 5.20484 18.5728 5.20484 18.806V45.6892C5.20484 45.9224 5.31924 46.214 5.54803 46.3307L11.7826 50.0045C15.1573 51.7539 17.2736 49.7129 17.2736 47.6719V21.1386C17.2736 20.7888 17.5596 20.4389 17.96 20.4389H20.8771C21.2203 20.4389 21.5634 20.7305 21.5634 21.1386V47.6719C21.5634 52.2788 19.1039 54.9613 14.8141 54.9613C13.4985 54.9613 12.469 54.9613 9.55186 53.5034L3.54611 50.0045C2.05897 49.1297 1.1438 47.4969 1.1438 45.7475V18.8644C1.1438 17.115 2.05897 15.4822 3.54611 14.6074L26.3681 1.13672C27.798 0.320313 29.7427 0.320313 31.1727 1.13672L53.9946 14.6074C55.4818 15.4822 56.3969 17.115 56.3969 18.8644V45.7475C56.3969 47.4969 55.4818 49.1297 53.9946 50.0045L31.1727 63.4752C30.4863 63.7668 29.6284 64 28.7704 64Z" fill="#5FA04E"/>
<path d="M35.8629 45.5143C25.8533 45.5143 23.7942 40.8491 23.7942 36.8837C23.7942 36.5339 24.0802 36.184 24.4805 36.184H27.4548C27.798 36.184 28.084 36.4172 28.084 36.7671C28.5416 39.8577 29.8572 41.374 35.9201 41.374C40.7247 41.374 42.7839 40.266 42.7839 37.6418C42.7839 36.1256 42.2119 35.0176 34.7189 34.2595C28.4844 33.6181 24.595 32.2186 24.595 27.1451C24.595 22.4216 28.4844 19.6226 35.005 19.6226C42.3262 19.6226 45.9297 22.1884 46.3873 27.7866C46.3873 27.9616 46.3301 28.1365 46.2157 28.3115C46.1014 28.4281 45.9297 28.5447 45.7581 28.5447H42.7267C42.4406 28.5447 42.1547 28.3115 42.0975 28.0198C41.4111 24.8126 39.638 23.7629 34.9478 23.7629C29.6855 23.7629 29.0564 25.629 29.0564 27.0285C29.0564 28.7196 29.8 29.2445 36.8925 30.1775C43.9278 31.1106 47.2453 32.4518 47.2453 37.4669C47.2453 42.5986 43.0698 45.5143 35.8629 45.5143Z" fill="#5FA04E"/>
</g>
<defs>
<clipPath id="clip0_408_847">
<rect width="56.32" height="64" fill="white" transform="translate(0.510986)"/>
</clipPath>
</defs>
</svg>

<svg xmlns="http://www.w3.org/2000/svg" width="57" height="64" fill="none"><g fill="#5FA04E" clip-path="url(#a)"><path d="M28.77 64c-.86 0-1.66-.23-2.4-.64l-7.6-4.6c-1.15-.65-.58-.88-.24-1 1.55-.52 1.83-.64 3.43-1.57.18-.12.4-.06.58.05l5.83 3.56c.23.12.51.12.69 0l22.82-13.47c.23-.12.34-.35.34-.64V18.8c0-.3-.11-.53-.34-.65L29.06 4.76c-.23-.12-.52-.12-.69 0L5.55 18.15c-.23.12-.35.41-.35.65v26.88c0 .23.12.52.35.64L11.78 50c3.38 1.75 5.5-.29 5.5-2.33V21.14c0-.35.28-.7.68-.7h2.92c.34 0 .68.29.68.7v26.53c0 4.6-2.46 7.3-6.75 7.3-1.31 0-2.34 0-5.26-1.47l-6-3.5a4.94 4.94 0 0 1-2.4-4.25V18.86c0-1.75.9-3.38 2.4-4.25L26.37 1.14a5.02 5.02 0 0 1 4.8 0L54 14.6c1.5.87 2.4 2.5 2.4 4.25v26.89c0 1.75-.9 3.38-2.4 4.25L31.17 63.48c-.68.29-1.54.52-2.4.52Z"/><path d="M35.86 45.51c-10 0-12.07-4.66-12.07-8.63 0-.35.29-.7.7-.7h2.96c.35 0 .63.24.63.59.46 3.09 1.78 4.6 7.84 4.6 4.8 0 6.86-1.1 6.86-3.73 0-1.51-.57-2.62-8.06-3.38-6.24-.64-10.13-2.04-10.13-7.11 0-4.73 3.9-7.53 10.42-7.53 7.32 0 10.92 2.57 11.38 8.17 0 .17-.06.35-.17.52-.12.12-.29.23-.46.23h-3.03a.67.67 0 0 1-.63-.52c-.69-3.2-2.46-4.26-7.15-4.26-5.26 0-5.9 1.87-5.9 3.27 0 1.69.75 2.21 7.84 3.15 7.04.93 10.36 2.27 10.36 7.29 0 5.13-4.18 8.04-11.39 8.04Z"/></g><defs><clipPath id="a"><path fill="#fff" d="M.51 0h56.32v64H.51z"/></clipPath></defs></svg>
